T: Haunted House, The
M: 6/8
L: 1/8
K: Gmaj
GFG AGA | BGE EDE | GAB d2 B | ded dBA |GFG AGA | BGE EDE | GBd ege | dBA G2- :|GBd ege | ege edB | GAB d2 B | ded dBA |[1 GBd ege | ege edB | GBd ege | dBA G2- :|[2 GFG AGA | BGE EDE | GBd ege | dBA G2 |]
